X: 184
T: Ha'penny Bridge (reel)
N: 080225
C: BB
N: revised 1/12/07
R: reel
Q: 380
M: 4/4
L: 1/8
K: G
A|"G"BGFG Bded|"Em"BEEF GEED|"G"G2 AB "C"cedc|"G"BdcB "D"ADFA |
"G"BGFG Bded|"Em"BE (3EDE dEEF|"G"G2 Bd "C"eceg|"D"fdcA "G"BG G :|
A|"G"Bd^cd "Em"edBd|"C"ecef "G"gabg|"D"afdc "G"Bdgd|"Em"egdB "D"ADFA |
"G"Bd (3d^cd "Em"edBd|"C"ecef "G"gaba|"G"gfgd "Am"eage|"D"fdcA "G"BG G :|
%%%%%%%%%%%%%%%%%%%%%%%%%%%%%%%%%%%%%%%%%%%
